packages/ffe-icons/icons/filled/sm/window.svg

<svg xmlns="http://www.w3.org/2000/svg" height="20" viewBox="0 -960 960 960" width="20"><path d="M505.999-454.001h290v225.692q0 25.827-18.891 45.067-18.89 19.241-45.417 19.241H505.999v-290Zm0-51.998v-290h225.692q26.527 0 45.417 18.891 18.891 18.89 18.891 45.417v225.692h-290Zm-51.998 0h-290v-225.692q0-26.527 19.241-45.417 19.24-18.891 45.067-18.891h225.692v290Zm0 51.998v290H228.309q-25.827 0-45.067-19.241-19.241-19.24-19.241-45.067v-225.692h290Z"/></svg>

<svg xmlns="http://www.w3.org/2000/svg" height="20" viewBox="0 -960 960 960" width="20"><path d="M506-454h290v225.69q0 25.83-18.89 45.07Q758.22-164 731.69-164H506v-290Zm0-52v-290h225.69q26.53 0 45.42 18.89T796-731.69V-506H506Zm-52 0H164v-225.69q0-26.53 19.24-45.42T228.31-796H454v290Zm0 52v290H228.31q-25.83 0-45.07-19.24Q164-202.48 164-228.31V-454h290Z"/></svg>
